; G-Code generated by Simplify3D(R) Version 4.1.2
; Oct 7, 2020 at 11:50:55 AM
; Settings Summary
;   processName,Process1
;   applyToModels,ICSP Pin protector - Part 1,ICSP Pin protector - Part 1(2),ICSP Pin protector - Part 1(3),ICSP Pin protector - Part 1(4),ICSP Pin protector - Part 1(5),ICSP Pin protector - Part 1(6),ICSP Pin protector - Part 1(7),ICSP Pin protector - Part 1(8),ICSP Pin protector - Part 1(9),ICSP Pin protector - Part 1(10),ICSP Pin protector - Part 1(11),ICSP Pin protector - Part 1(12),ICSP Pin protector - Part 1(13),ICSP Pin protector - Part 1(14),ICSP Pin protector - Part 1(15),ICSP Pin protector - Part 1(16),ICSP Pin protector - Part 1(17),ICSP Pin protector - Part 1(18),ICSP Pin protector - Part 1(19),ICSP Pin protector - Part 1(20),ICSP Pin protector - Part 1(21),ICSP Pin protector - Part 1(22),ICSP Pin protector - Part 1(23),ICSP Pin protector - Part 1(24),ICSP Pin protector - Part 1(25),ICSP Pin protector - Part 1(26),ICSP Pin protector - Part 1(27),ICSP Pin protector - Part 1(28),ICSP Pin protector - Part 1(29),ICSP Pin protector - Part 1(30)
;   profileName,Prusa Research Original Prusa i3 MK3 (modified)
;   profileVersion,2018-01-19 08:00:00
;   baseProfile,
;   printMaterial,PLA
;   printQuality,Medium
;   printExtruders,
;   extruderName,Primary Extruder
;   extruderToolheadNumber,0
;   extruderDiameter,0.4
;   extruderAutoWidth,0
;   extruderWidth,0.4
;   extrusionMultiplier,1
;   extruderUseRetract,1
;   extruderRetractionDistance,1
;   extruderExtraRestartDistance,0
;   extruderRetractionZLift,0
;   extruderRetractionSpeed,2400
;   extruderUseCoasting,1
;   extruderCoastingDistance,0.2
;   extruderUseWipe,1
;   extruderWipeDistance,2
;   primaryExtruder,0
;   layerHeight,0.2
;   topSolidLayers,3
;   bottomSolidLayers,3
;   perimeterOutlines,2
;   printPerimetersInsideOut,1
;   startPointOption,2
;   startPointOriginX,0
;   startPointOriginY,0
;   sequentialIslands,0
;   spiralVaseMode,0
;   firstLayerHeightPercentage,150
;   firstLayerWidthPercentage,100
;   firstLayerUnderspeed,0.5
;   useRaft,0
;   raftExtruder,0
;   raftTopLayers,3
;   raftBaseLayers,2
;   raftOffset,3
;   raftSeparationDistance,0.14
;   raftTopInfill,100
;   aboveRaftSpeedMultiplier,0.3
;   useSkirt,1
;   skirtExtruder,0
;   skirtLayers,1
;   skirtOutlines,2
;   skirtOffset,4
;   usePrimePillar,0
;   primePillarExtruder,999
;   primePillarWidth,12
;   primePillarLocation,7
;   primePillarSpeedMultiplier,1
;   useOozeShield,0
;   oozeShieldExtruder,999
;   oozeShieldOffset,2
;   oozeShieldOutlines,1
;   oozeShieldSidewallShape,1
;   oozeShieldSidewallAngle,30
;   oozeShieldSpeedMultiplier,1
;   infillExtruder,0
;   internalInfillPattern,Rectilinear
;   externalInfillPattern,Rectilinear
;   infillPercentage,18
;   outlineOverlapPercentage,20
;   infillExtrusionWidthPercentage,100
;   minInfillLength,5
;   infillLayerInterval,1
;   internalInfillAngles,45,-45
;   overlapInternalInfillAngles,0
;   externalInfillAngles,45,-45
;   generateSupport,1
;   supportExtruder,0
;   supportInfillPercentage,30
;   supportExtraInflation,0
;   supportBaseLayers,0
;   denseSupportExtruder,0
;   denseSupportLayers,0
;   denseSupportInfillPercentage,70
;   supportLayerInterval,1
;   supportHorizontalPartOffset,0.3
;   supportUpperSeparationLayers,1
;   supportLowerSeparationLayers,1
;   supportType,0
;   supportGridSpacing,1.5
;   maxOverhangAngle,45
;   supportAngles,0
;   temperatureName,Primary Extruder,Heated Bed
;   temperatureNumber,0,0
;   temperatureSetpointCount,1,1
;   temperatureSetpointLayers,1,1
;   temperatureSetpointTemperatures,200,60
;   temperatureStabilizeAtStartup,1,1
;   temperatureHeatedBed,0,1
;   fanLayers,1,2
;   fanSpeeds,0,100
;   blipFanToFullPower,0
;   adjustSpeedForCooling,1
;   minSpeedLayerTime,15
;   minCoolingSpeedSlowdown,20
;   increaseFanForCooling,0
;   minFanLayerTime,45
;   maxCoolingFanSpeed,100
;   increaseFanForBridging,0
;   bridgingFanSpeed,100
;   use5D,1
;   relativeEdistances,0
;   allowEaxisZeroing,1
;   independentExtruderAxes,0
;   includeM10123,0
;   stickySupport,1
;   applyToolheadOffsets,0
;   gcodeXoffset,0
;   gcodeYoffset,0
;   gcodeZoffset,0
;   overrideMachineDefinition,1
;   machineTypeOverride,0
;   strokeXoverride,250
;   strokeYoverride,210
;   strokeZoverride,210
;   originOffsetXoverride,0
;   originOffsetYoverride,0
;   originOffsetZoverride,0
;   homeXdirOverride,-1
;   homeYdirOverride,-1
;   homeZdirOverride,-1
;   flipXoverride,1
;   flipYoverride,-1
;   flipZoverride,1
;   toolheadOffsets,0,0|0,0|0,0|0,0|0,0|0,0
;   overrideFirmwareConfiguration,1
;   firmwareTypeOverride,RepRap (Marlin/Repetier/Sprinter)
;   GPXconfigOverride,r2
;   baudRateOverride,115200
;   overridePrinterModels,1
;   printerModelsOverride
;   startingGcode,M115 U3.0.7 ; use the latest firmware version,G28 W ; home all axes without mesh bed leveling,G80 ; run mesh bed leveling routine,G1 Y-3.0 F1000.0 ; prepare to prime,G92 E0 ; reset extrusion distance,G1 X60.0 E9.0  F1000.0 ; priming,G1 X100.0 E12.5  F1000.0 ; priming
;   layerChangeGcode,
;   retractionGcode,
;   toolChangeGcode,
;   endingGcode,G4 ; wait,M106 S0 ; turn off cooling fan,M104 S0 ; turn off extruder,M140 S0 ; turn off bed,G1 X0 Y200 ; part removal,M84 ; disable motors
;   exportFileFormat,gcode
;   celebration,0
;   celebrationSong,Random Song
;   postProcessing,
;   defaultSpeed,4800
;   outlineUnderspeed,0.5
;   solidInfillUnderspeed,0.8
;   supportUnderspeed,0.8
;   rapidXYspeed,12000
;   rapidZspeed,1002
;   minBridgingArea,10
;   bridgingExtraInflation,0
;   bridgingExtrusionMultiplier,1
;   bridgingSpeedMultiplier,1
;   useFixedBridgingAngle,0
;   fixedBridgingAngle,0
;   applyBridgingToPerimeters,0
;   filamentDiameters,1.75|1.75|1.75|1.75|1.75|1.75
;   filamentPricesPerKg,20|46|46|46|46|46
;   filamentDensities,1.25|1.25|1.25|1.25|1.25|1.25
;   useMinPrintHeight,0
;   minPrintHeight,0
;   useMaxPrintHeight,0
;   maxPrintHeight,0
;   useDiaphragm,0
;   diaphragmLayerInterval,20
;   robustSlicing,1
;   mergeAllIntoSolid,0
;   onlyRetractWhenCrossingOutline,1
;   retractBetweenLayers,1
;   useRetractionMinTravel,0
;   retractionMinTravel,3
;   retractWhileWiping,1
;   onlyWipeOutlines,1
;   avoidCrossingOutline,0
;   maxMovementDetourFactor,3
;   toolChangeRetractionDistance,12
;   toolChangeExtraRestartDistance,-0.5
;   toolChangeRetractionSpeed,600
;   externalThinWallType,0
;   internalThinWallType,1
;   thinWallAllowedOverlapPercentage,25
;   singleExtrusionMinLength,1
;   singleExtrusionMinPrintingWidthPercentage,50
;   singleExtrusionMaxPrintingWidthPercentage,200
;   singleExtrusionEndpointExtension,0.2
;   horizontalSizeCompensation,0
G90
M82
M106 S0
M140 S60
M190 S60
M104 S200 T0
M109 S200 T0
M115 U3.0.7 ; use the latest firmware version
G28 W ; home all axes without mesh bed leveling
G80 ; run mesh bed leveling routine
G1 Y-3.0 F1000.0 ; prepare to prime
G92 E0 ; reset extrusion distance
G1 X60.0 E9.0  F1000.0 ; priming
G1 X100.0 E12.5  F1000.0 ; priming
; process Process1
; layer 1, Z = 0.300
T0
G92 E0.0000
G1 E-1.0000 F2400
; feature skirt
; tool H0.300 W0.400
G1 Z0.300 F1002
G1 X83.361 Y78.719 F12000
G1 E0.0000 F2400
G92 E0.0000
G1 X84.327 Y77.710 E0.0697 F2400
G1 X85.363 Y77.082 E0.1301
G1 X86.528 Y76.742 E0.1907
G1 X87.179 Y76.649 E0.2235
G1 X95.643 Y76.663 E0.6458
G1 X96.670 Y76.903 E0.6984
G1 X97.740 Y77.431 E0.7579
G1 X97.985 Y77.614 E0.7732
G1 X98.863 Y77.082 E0.8244
G1 X100.028 Y76.742 E0.8850
G1 X100.679 Y76.649 E0.9178
G1 X109.143 Y76.663 E1.3401
G1 X110.170 Y76.903 E1.3927
G1 X111.240 Y77.431 E1.4522
G1 X111.485 Y77.614 E1.4675
G1 X112.363 Y77.082 E1.5187
G1 X113.528 Y76.742 E1.5793
G1 X114.179 Y76.649 E1.6120
G1 X122.643 Y76.663 E2.0343
G1 X123.670 Y76.903 E2.0870
G1 X124.740 Y77.431 E2.1465
G1 X124.985 Y77.614 E2.1617
G1 X125.863 Y77.082 E2.2130
G1 X127.028 Y76.742 E2.2735
G1 X127.679 Y76.649 E2.3063
G1 X136.143 Y76.663 E2.7286
G1 X137.170 Y76.903 E2.7812
G1 X138.240 Y77.431 E2.8407
G1 X138.485 Y77.614 E2.8560
G1 X139.363 Y77.082 E2.9073
G1 X140.528 Y76.742 E2.9678
G1 X141.179 Y76.649 E3.0006
G1 X149.643 Y76.663 E3.4229
G1 X150.670 Y76.903 E3.4755
G1 X151.740 Y77.431 E3.5350
G1 X151.985 Y77.614 E3.5503
G1 X152.863 Y77.082 E3.6015
G1 X154.028 Y76.742 E3.6621
G1 X154.679 Y76.649 E3.6949
G1 X163.143 Y76.663 E4.1172
G1 X164.170 Y76.903 E4.1698
G1 X165.240 Y77.431 E4.2293
G1 X165.924 Y77.944 E4.2720
G1 X166.624 Y78.708 E4.3237
G1 X167.111 Y79.531 E4.3714
G1 X167.477 Y80.606 E4.4280
G1 X167.600 Y81.351 E4.4657
G1 X167.600 Y86.598 E4.7275
G1 X167.507 Y87.245 E4.7601
G1 X167.201 Y88.295 E4.8147
G1 X166.682 Y89.218 E4.8675
G1 X166.650 Y89.252 E4.8698
G1 X167.111 Y90.031 E4.9150
G1 X167.477 Y91.106 E4.9716
G1 X167.600 Y91.851 E5.0093
G1 X167.600 Y97.098 E5.2711
G1 X167.507 Y97.745 E5.3037
G1 X167.201 Y98.795 E5.3582
G1 X166.682 Y99.718 E5.4111
G1 X166.643 Y99.760 E5.4139
G1 X166.753 Y99.891 E5.4224
G1 X167.204 Y100.735 E5.4702
G1 X167.508 Y101.776 E5.5243
G1 X167.600 Y102.424 E5.5569
G1 X167.600 Y107.599 E5.8151
G1 X167.507 Y108.245 E5.8477
G1 X167.194 Y109.320 E5.9035
G1 X166.653 Y110.257 E5.9575
G1 X167.111 Y111.031 E6.0024
G1 X167.477 Y112.106 E6.0591
G1 X167.600 Y112.851 E6.0967
G1 X167.600 Y118.098 E6.3585
G1 X167.507 Y118.745 E6.3911
G1 X167.201 Y119.795 E6.4457
G1 X166.682 Y120.718 E6.4985
G1 X166.643 Y120.760 E6.5013
G1 X166.753 Y120.891 E6.5099
G1 X167.204 Y121.735 E6.5576
G1 X167.508 Y122.777 E6.6117
G1 X167.600 Y123.424 E6.6443
G1 X167.600 Y128.599 E6.9025
G1 X167.507 Y129.245 E6.9351
G1 X167.194 Y130.320 E6.9909
G1 X166.639 Y131.281 E7.0463
G1 X165.672 Y132.290 E7.1161
G1 X164.637 Y132.919 E7.1765
G1 X163.473 Y133.258 E7.2370
G1 X162.826 Y133.350 E7.2696
G1 X154.703 Y133.350 E7.6749
G1 X154.155 Y133.284 E7.7024
G1 X153.281 Y133.070 E7.7473
G1 X152.500 Y132.717 E7.7900
G1 X152.006 Y132.370 E7.8201
G1 X151.704 Y132.597 E7.8390
G1 X150.868 Y133.009 E7.8854
G1 X150.198 Y133.220 E7.9205
G1 X149.527 Y133.323 E7.9544
G1 X149.176 Y133.350 E7.9719
G1 X141.203 Y133.350 E8.3697
G1 X140.655 Y133.284 E8.3972
G1 X139.781 Y133.070 E8.4421
G1 X139.000 Y132.717 E8.4849
G1 X138.522 Y132.382 E8.5140
G1 X137.637 Y132.919 E8.5657
G1 X136.473 Y133.258 E8.6261
G1 X135.826 Y133.350 E8.6587
G1 X127.703 Y133.350 E9.0640
G1 X127.155 Y133.284 E9.0916
G1 X126.281 Y133.070 E9.1364
G1 X125.500 Y132.717 E9.1792
G1 X125.022 Y132.382 E9.2083
G1 X124.137 Y132.919 E9.2600
G1 X122.973 Y133.258 E9.3205
G1 X122.326 Y133.350 E9.3531
G1 X114.203 Y133.350 E9.7583
G1 X113.655 Y133.284 E9.7859
G1 X112.781 Y133.070 E9.8308
G1 X112.000 Y132.717 E9.8735
G1 X111.506 Y132.370 E9.9036
G1 X111.204 Y132.597 E9.9225
G1 X110.368 Y133.008 E9.9689
G1 X109.698 Y133.220 E10.0040
G1 X109.027 Y133.323 E10.0379
G1 X108.676 Y133.350 E10.0554
G1 X100.703 Y133.350 E10.4532
G1 X100.155 Y133.284 E10.4807
G1 X99.281 Y133.070 E10.5256
G1 X98.501 Y132.717 E10.5684
G1 X98.006 Y132.370 E10.5985
G1 X97.704 Y132.597 E10.6174
G1 X96.868 Y133.008 E10.6638
G1 X96.198 Y133.220 E10.6988
G1 X95.527 Y133.323 E10.7327
G1 X95.176 Y133.350 E10.7503
G1 X87.203 Y133.350 E11.1481
G1 X86.655 Y133.284 E11.1756
G1 X85.781 Y133.070 E11.2205
G1 X85.001 Y132.717 E11.2632
G1 X84.157 Y132.126 E11.3146
G1 X83.559 Y131.515 E11.3573
G1 X82.976 Y130.642 E11.4097
G1 X82.640 Y129.855 E11.4523
G1 X82.455 Y129.023 E11.4949
G1 X82.400 Y128.523 E11.5199
G1 X82.400 Y123.401 E11.7755
G1 X82.493 Y122.754 E11.8081
G1 X82.806 Y121.680 E11.8639
G1 X83.362 Y120.718 E11.9193
G1 X83.034 Y120.250 E11.9479
G1 X82.681 Y119.471 E11.9905
G1 X82.467 Y118.598 E12.0354
G1 X82.400 Y118.048 E12.0630
G1 X82.400 Y112.901 E12.3198
G1 X82.493 Y112.255 E12.3524
G1 X82.806 Y111.180 E12.4082
G1 X83.361 Y110.219 E12.4636
G1 X82.976 Y109.642 E12.4982
G1 X82.640 Y108.855 E12.5409
G1 X82.455 Y108.023 E12.5834
G1 X82.400 Y107.523 E12.6085
G1 X82.400 Y102.401 E12.8640
G1 X82.493 Y101.754 E12.8966
G1 X82.806 Y100.680 E12.9525
G1 X83.362 Y99.719 E13.0079
G1 X82.976 Y99.142 E13.0425
G1 X82.640 Y98.355 E13.0852
G1 X82.455 Y97.523 E13.1277
G1 X82.400 Y97.023 E13.1528
G1 X82.400 Y91.901 E13.4083
G1 X82.493 Y91.254 E13.4409
G1 X82.806 Y90.180 E13.4967
G1 X83.362 Y89.219 E13.5521
G1 X82.976 Y88.642 E13.5868
G1 X82.640 Y87.855 E13.6294
G1 X82.455 Y87.023 E13.6720
G1 X82.400 Y86.523 E13.6970
G1 X82.400 Y81.401 E13.9526
G1 X82.493 Y80.754 E13.9852
G1 X82.806 Y79.680 E14.0410
G1 X83.361 Y78.719 E14.0963
G92 E0.0000
G1 E-1.0000 F2400
G1 X83.683 Y78.961 F12000
G1 E0.0000 F2400
G92 E0.0000
G1 X84.580 Y78.024 E0.0647 F2400
G1 X85.525 Y77.451 E0.1199
G1 X86.612 Y77.134 E0.1764
G1 X87.207 Y77.049 E0.2063
G1 X95.596 Y77.063 E0.6249
G1 X96.534 Y77.282 E0.6729
G1 X97.529 Y77.773 E0.7283
G1 X97.990 Y78.118 E0.7570
G1 X98.080 Y78.024 E0.7635
G1 X99.025 Y77.451 E0.8187
G1 X100.112 Y77.134 E0.8752
G1 X100.707 Y77.049 E0.9051
G1 X109.096 Y77.063 E1.3237
G1 X110.034 Y77.282 E1.3717
G1 X111.029 Y77.773 E1.4271
G1 X111.490 Y78.118 E1.4558
G1 X111.580 Y78.024 E1.4623
G1 X112.525 Y77.451 E1.5175
G1 X113.612 Y77.134 E1.5740
G1 X114.207 Y77.049 E1.6039
G1 X122.596 Y77.063 E2.0225
G1 X123.534 Y77.282 E2.0705
G1 X124.529 Y77.773 E2.1259
G1 X124.990 Y78.118 E2.1546
G1 X125.080 Y78.024 E2.1611
G1 X126.025 Y77.451 E2.2163
G1 X127.112 Y77.134 E2.2728
G1 X127.707 Y77.049 E2.3027
G1 X136.096 Y77.063 E2.7213
G1 X137.034 Y77.282 E2.7693
G1 X138.029 Y77.773 E2.8247
G1 X138.490 Y78.118 E2.8534
G1 X138.580 Y78.024 E2.8599
G1 X139.525 Y77.451 E2.9151
G1 X140.612 Y77.134 E2.9716
G1 X141.207 Y77.049 E3.0015
G1 X149.596 Y77.063 E3.4201
G1 X150.534 Y77.282 E3.4681
G1 X151.529 Y77.773 E3.5235
G1 X151.990 Y78.118 E3.5522
G1 X152.080 Y78.024 E3.5587
G1 X153.025 Y77.451 E3.6139
G1 X154.112 Y77.134 E3.6704
G1 X154.707 Y77.049 E3.7003
G1 X163.096 Y77.063 E4.1189
G1 X164.034 Y77.282 E4.1669
G1 X165.029 Y77.773 E4.2223
G1 X165.654 Y78.241 E4.2612
G1 X166.301 Y78.947 E4.3090
G1 X166.746 Y79.699 E4.3526
G1 X167.087 Y80.704 E4.4055
G1 X167.200 Y81.384 E4.4399
G1 X167.200 Y86.570 E4.6987
G1 X167.115 Y87.160 E4.7284
G1 X166.830 Y88.139 E4.7793
G1 X166.356 Y88.982 E4.8275
G1 X166.115 Y89.244 E4.8453
G1 X166.301 Y89.447 E4.8590
G1 X166.746 Y90.199 E4.9026
G1 X167.087 Y91.204 E4.9556
G1 X167.200 Y91.884 E4.9899
G1 X167.200 Y97.070 E5.2487
G1 X167.115 Y97.660 E5.2784
G1 X166.830 Y98.639 E5.3293
G1 X166.356 Y99.482 E5.3775
G1 X166.111 Y99.748 E5.3956
G1 X166.420 Y100.116 E5.4195
G1 X166.832 Y100.887 E5.4631
G1 X167.116 Y101.861 E5.5138
G1 X167.200 Y102.452 E5.5435
G1 X167.200 Y107.570 E5.7989
G1 X167.115 Y108.160 E5.8286
G1 X166.824 Y109.161 E5.8806
G1 X166.317 Y110.039 E5.9312
G1 X166.118 Y110.247 E5.9456
G1 X166.301 Y110.447 E5.9591
G1 X166.746 Y111.199 E6.0027
G1 X167.087 Y112.204 E6.0557
G1 X167.200 Y112.884 E6.0900
G1 X167.200 Y118.070 E6.3488
G1 X167.115 Y118.660 E6.3785
G1 X166.830 Y119.639 E6.4294
G1 X166.356 Y120.482 E6.4776
G1 X166.111 Y120.749 E6.4957
G1 X166.420 Y121.116 E6.5196
G1 X166.832 Y121.887 E6.5632
G1 X167.116 Y122.861 E6.6139
G1 X167.200 Y123.452 E6.6436
G1 X167.200 Y128.570 E6.8990
G1 X167.115 Y129.161 E6.9287
G1 X166.824 Y130.161 E6.9807
G1 X166.317 Y131.039 E7.0313
G1 X165.420 Y131.976 E7.0960
G1 X164.474 Y132.549 E7.1512
G1 X163.389 Y132.866 E7.2076
G1 X162.798 Y132.950 E7.2374
G1 X154.727 Y132.950 E7.6401
G1 X154.227 Y132.889 E7.6652
G1 X153.412 Y132.690 E7.7070
G1 X152.699 Y132.368 E7.7461
G1 X151.998 Y131.876 E7.7888
G1 X151.493 Y132.255 E7.8202
G1 X150.719 Y132.636 E7.8633
G1 X150.107 Y132.829 E7.8953
G1 X149.481 Y132.925 E7.9269
G1 X149.161 Y132.950 E7.9430
G1 X141.227 Y132.950 E8.3388
G1 X140.727 Y132.889 E8.3639
G1 X139.912 Y132.690 E8.4057
G1 X139.199 Y132.368 E8.4448
G1 X138.508 Y131.883 E8.4869
G1 X138.420 Y131.976 E8.4932
G1 X137.474 Y132.549 E8.5484
G1 X136.389 Y132.866 E8.6048
G1 X135.798 Y132.950 E8.6346
G1 X127.727 Y132.950 E9.0373
G1 X127.227 Y132.889 E9.0624
G1 X126.412 Y132.690 E9.1042
G1 X125.699 Y132.368 E9.1433
G1 X125.008 Y131.883 E9.1854
G1 X124.920 Y131.976 E9.1918
G1 X123.974 Y132.549 E9.2469
G1 X122.889 Y132.866 E9.3034
G1 X122.298 Y132.950 E9.3331
G1 X114.227 Y132.950 E9.7358
G1 X113.727 Y132.889 E9.7609
